svgs/dooz.svg

<svg width="192" height="192" viewBox="0 0 192 192" fill="none" xmlns="http://www.w3.org/2000/svg">
<path d="M66.3985 22V170M125.601 22V170M170 66.3996H22M22 125.604H170" stroke="black" stroke-width="12" stroke-linecap="round"/>
<circle cx="96" cy="96" r="10" stroke="black" stroke-width="8"/>
<path d="M146 45.3044L161.304 30L162 30.6957L146.696 46L146 45.3044Z" stroke="black" stroke-width="8" stroke-linejoin="round"/>
<path d="M161.304 46L146 30.6957L146.696 30L162 45.3043L161.304 46Z" stroke="black" stroke-width="8" stroke-linejoin="round"/>
</svg>

<svg xmlns="http://www.w3.org/2000/svg" width="192" height="192" fill="none" viewBox="0 0 192 192"><path stroke="#000" stroke-linecap="round" stroke-width="12" d="M66.398 22v148m59.203-148v148M170 66.4H22m0 59.204h148"/><circle cx="96" cy="96" r="10" stroke="#000" stroke-width="8"/><path stroke="#000" stroke-linejoin="round" stroke-width="8" d="M146 45.304 161.304 30l.696.696L146.696 46l-.696-.696Z"/><path stroke="#000" stroke-linejoin="round" stroke-width="8" d="M161.304 46 146 30.696l.696-.696L162 45.304l-.696.696Z"/></svg>
